packages/calcite-ui-icons/icons/bulldozer-area-16.svg

<?xml version="1.0" encoding="UTF-8"?><svg id="icons" xmlns="http://www.w3.org/2000/svg" viewBox="0 0 16 16"><defs><style>.cls-1{fill:none;}</style></defs><path d="M15,13v-3h-1v3h-1.05054c-.1236-.60657-.4729-1.12689-.94946-1.48755v-3.51245h-1v-1h-1v1h-1.19141l-1-2h-3.80859v1h1v4.5h.01508c-.61243.45599-1.01508,1.17914-1.01508,2,0,1.37891,1.12109,2.5,2.5,2.5h4c1.20764,0,2.21722-.86005,2.44946-2h1.05054v2h2l-1-3ZM6,7h1.19141l.5,1h-1.69141v-1ZM6,9h5v2.05054c-.46994-.09566-4.63758-.07377-5,0v-2.05054ZM11.9079,14c-.20709.58075-.7569,1-1.4079,1h-4c-.82715,0-1.5-.67285-1.5-1.5s.67285-1.5,1.5-1.5h4c.651,0,1.20081.41925,1.4079,1h-3.9079v1h3.9079ZM6,13h1v1h-1v-1ZM3,1v1h-1v1h-1V1h2ZM4,1h9v1H4v-1ZM14,1h2v2h-1v-1h-1v-1ZM2,4v9h-1V4h1ZM2,14v1h1v1H1v-2h1ZM16,8h-1v-4h1v4Z"/><rect class="cls-1" width="16" height="16"/></svg>

<svg xmlns="http://www.w3.org/2000/svg" viewBox="0 0 16 16"><path d="M15 13v-3h-1v3h-1.05a2.496 2.496 0 0 0-.95-1.488V8h-1V7h-1v1H8.809l-1-2H4v1h1v4.5h.015A2.49 2.49 0 0 0 4 13.5C4 14.879 5.121 16 6.5 16h4c1.208 0 2.217-.86 2.45-2H14v2h2l-1-3zM6 7h1.191l.5 1H6V7zm0 2h5v2.05c-.47-.095-4.638-.073-5 0V9zm5.908 5c-.207.58-.757 1-1.408 1h-4c-.827 0-1.5-.673-1.5-1.5S5.673 12 6.5 12h4c.651 0 1.2.42 1.408 1H8v1h3.908zM6 13h1v1H6v-1zM3 1v1H2v1H1V1h2zm1 0h9v1H4V1zm10 0h2v2h-1V2h-1V1zM2 4v9H1V4h1zm0 10v1h1v1H1v-2h1zm14-6h-1V4h1v4z"/><path fill="none" d="M0 0h16v16H0z"/></svg>
